src/lib/packages/icons/src/assets/filled/envelope-ban.svg

<svg width="24" height="24" viewBox="0 0 24 24" fill="none" xmlns="http://www.w3.org/2000/svg">
<path d="M18.2109 11.757C18.7029 11.733 19.177 11.77 19.634 11.868C19.823 11.908 19.999 11.776 19.999 11.583V7C19.999 5 18.999 4 16.999 4H4.99902C2.99902 4 1.99902 5 1.99902 7V16C1.99902 18 2.99902 19 4.99902 19H12.582C12.775 19 12.9069 18.823 12.8669 18.635C12.7689 18.176 12.7321 17.7 12.7561 17.207C12.9011 14.313 15.3169 11.898 18.2109 11.757ZM12.0291 12.179C11.7211 12.403 11.36 12.515 11 12.515C10.64 12.515 10.2779 12.403 9.97095 12.18L5.05908 8.60699C4.72408 8.36399 4.65004 7.89401 4.89404 7.55901C5.13704 7.22601 5.60489 7.149 5.94189 7.394L10.854 10.966C10.942 11.029 11.059 11.03 11.147 10.966L16.0591 7.394C16.3961 7.149 16.8639 7.22501 17.1069 7.55901C17.3509 7.89401 17.2769 8.36299 16.9419 8.60699L12.0291 12.179ZM18.5 13.25C16.156 13.25 14.25 15.156 14.25 17.5C14.25 19.844 16.156 21.75 18.5 21.75C20.844 21.75 22.75 19.844 22.75 17.5C22.75 15.156 20.844 13.25 18.5 13.25ZM15.75 17.5C15.75 15.983 16.983 14.75 18.5 14.75C18.985 14.75 19.4351 14.887 19.8311 15.108L16.1079 18.831C15.8869 18.435 15.75 17.985 15.75 17.5ZM18.5 20.25C18.015 20.25 17.5649 20.113 17.1689 19.892L20.8921 16.169C21.1131 16.565 21.25 17.015 21.25 17.5C21.25 19.017 20.017 20.25 18.5 20.25Z" fill="currentColor"/>
</svg>

<svg xmlns="http://www.w3.org/2000/svg" width="24" height="24" fill="none"><path fill="currentColor" d="M18.21 11.757c.493-.024.967.013 1.424.111a.295.295 0 0 0 .365-.285V7c0-2-1-3-3-3h-12c-2 0-3 1-3 3v9c0 2 1 3 3 3h7.583a.295.295 0 0 0 .285-.365 5.525 5.525 0 0 1-.11-1.428c.144-2.894 2.56-5.309 5.454-5.45Zm-6.18.422a1.748 1.748 0 0 1-2.059.001L5.059 8.607a.75.75 0 1 1 .883-1.213l4.912 3.572a.25.25 0 0 0 .293 0l4.912-3.572a.75.75 0 1 1 .883 1.213l-4.913 3.572Zm6.47 1.071a4.254 4.254 0 0 0-4.25 4.25 4.254 4.254 0 0 0 4.25 4.25 4.254 4.254 0 0 0 4.25-4.25 4.254 4.254 0 0 0-4.25-4.25Zm-2.75 4.25a2.752 2.752 0 0 1 2.75-2.75c.485 0 .935.137 1.331.358l-3.723 3.723a2.72 2.72 0 0 1-.358-1.331Zm2.75 2.75a2.72 2.72 0 0 1-1.331-.358l3.723-3.723c.221.396.358.846.358 1.331a2.752 2.752 0 0 1-2.75 2.75Z"/></svg>
